svgs/profile-1.svg

<!-- Generated by IcoMoon.io -->
<svg version="1.1" xmlns="http://www.w3.org/2000/svg" width="1566" height="1500" viewBox="0 0 1566 1500">
<title>profile-1</title>
<path d="M1159.497 786.486h-135.927l-240.961 198.649-240.961-198.649h-135.927c-105.776-0.001-207.192 41.495-281.793 115.301s-116.237 173.834-115.689 277.942l-0.006 320.271h1548.751l-0.006-320.271c0.548-104.108-41.087-204.136-115.689-277.942s-176.017-115.302-281.793-115.301zM1392.229 1337.837h-1219.241l0.009-158.108c-0.549-61.099 23.728-119.883 67.431-163.277s103.211-67.806 165.293-67.803h76.201l300.687 247.298 300.687-247.298h76.201c62.080-0.003 121.589 24.409 165.293 67.803s67.98 102.179 67.431 163.277l0.009 158.108z"></path>
<path d="M782.609 812.837c227.216-0.003 411.517-181.099 411.894-404.733s-183.312-405.331-410.527-406.075c-227.216-0.744-412.129 179.744-413.266 403.375-0.003 224.229 184.081 406.317 411.899 407.433zM782.609 162.163c136.491 0 247.14 108.904 247.14 243.243s-110.648 243.243-247.14 243.243c-136.491 0-247.14-108.904-247.14-243.243s110.648-243.243 247.14-243.243z"></path>
</svg>

<svg xmlns="http://www.w3.org/2000/svg" width="1566" height="1500" viewBox="0 0 1566 1500"><path d="M1159.497 786.486H1023.57L782.609 985.135 541.648 786.486H405.721c-105.776-.001-207.192 41.495-281.793 115.301S7.691 1075.621 8.239 1179.729L8.233 1500h1548.751l-.006-320.271c.548-104.108-41.087-204.136-115.689-277.942s-176.017-115.302-281.793-115.301zm232.732 551.351H172.988l.009-158.108c-.549-61.099 23.728-119.883 67.431-163.277s103.211-67.806 165.293-67.803h76.201l300.687 247.298 300.687-247.298h76.201c62.08-.003 121.589 24.409 165.293 67.803s67.98 102.179 67.431 163.277l.009 158.108zm-609.62-525c227.216-.003 411.517-181.099 411.894-404.733S1011.191 2.773 783.976 2.029C556.76 1.285 371.847 181.773 370.71 405.404c-.003 224.229 184.081 406.317 411.899 407.433zm0-650.674c136.491 0 247.14 108.904 247.14 243.243s-110.648 243.243-247.14 243.243c-136.491 0-247.14-108.904-247.14-243.243s110.648-243.243 247.14-243.243z"/></svg>
